assets/imgs/google.svg

<svg width="18" height="19" viewBox="0 0 18 19" fill="none" xmlns="http://www.w3.org/2000/svg">
<path fill-rule="evenodd" clip-rule="evenodd" d="M17.64 9.70456C17.64 9.06637 17.5827 8.45274 17.4764 7.86365H9V11.345H13.8436C13.635 12.47 13.0009 13.4232 12.0477 14.0614V16.3196H14.9564C16.6582 14.7527 17.64 12.4455 17.64 9.70456Z" fill="#4285F4"/>
<path fill-rule="evenodd" clip-rule="evenodd" d="M9 18.5C11.43 18.5 13.4673 17.6941 14.9564 16.3196L12.0477 14.0614C11.2418 14.6014 10.2109 14.9205 9 14.9205C6.65591 14.9205 4.67182 13.3373 3.96409 11.21H0.957275V13.5418C2.43818 16.4832 5.48182 18.5 9 18.5Z" fill="#34A853"/>
<path fill-rule="evenodd" clip-rule="evenodd" d="M3.96409 11.21C3.78409 10.67 3.68182 10.0932 3.68182 9.50001C3.68182 8.90683 3.78409 8.33001 3.96409 7.79001V5.45819H0.957273C0.347727 6.67319 0 8.04774 0 9.50001C0 10.9523 0.347727 12.3268 0.957273 13.5418L3.96409 11.21Z" fill="#FBBC05"/>
<path fill-rule="evenodd" clip-rule="evenodd" d="M9 4.07955C10.3214 4.07955 11.5077 4.53364 12.4405 5.42545L15.0218 2.84409C13.4632 1.39182 11.4259 0.5 9 0.5C5.48182 0.5 2.43818 2.51682 0.957275 5.45818L3.96409 7.79C4.67182 5.66273 6.65591 4.07955 9 4.07955Z" fill="#EA4335"/>
</svg>

<svg width="18" height="19" fill="none" xmlns="http://www.w3.org/2000/svg"><path fill-rule="evenodd" clip-rule="evenodd" d="M17.64 9.705c0-.639-.057-1.252-.164-1.841H9v3.481h4.844a4.14 4.14 0 0 1-1.796 2.716v2.259h2.908c1.702-1.567 2.684-3.875 2.684-6.615z" fill="#4285F4"/><path fill-rule="evenodd" clip-rule="evenodd" d="M9 18.5c2.43 0 4.467-.806 5.956-2.18l-2.908-2.259c-.806.54-1.837.86-3.048.86-2.344 0-4.328-1.584-5.036-3.711H.957v2.332A8.997 8.997 0 0 0 9 18.5z" fill="#34A853"/><path fill-rule="evenodd" clip-rule="evenodd" d="M3.964 11.21a5.41 5.41 0 0 1-.282-1.71c0-.593.102-1.17.282-1.71V5.458H.957A8.996 8.996 0 0 0 0 9.5c0 1.452.348 2.827.957 4.042l3.007-2.332z" fill="#FBBC05"/><path fill-rule="evenodd" clip-rule="evenodd" d="M9 4.08c1.321 0 2.508.454 3.44 1.345l2.582-2.58C13.463 1.391 11.426.5 9 .5A8.997 8.997 0 0 0 .957 5.458L3.964 7.79C4.672 5.663 6.656 4.08 9 4.08z" fill="#EA4335"/></svg>
